X: 99
T:Lancashire Hp. WI.099
M:C|
L:1/8
Q:180
S:Wm Irwin, Folio MS, c1850. AGG's Transcription
R:Hornipe
O:England
A:Lake District
Z:vmp.Chris Partington.2005
K:D
A2|d2A2 ABAG|F2D2 D2FD|E2E2 E2FG|ABAG FABc|!
d2A2 ABAG|F2D2 D2FD|E2E2 ABAG|F2D2 D2:|!
|:A2|d2de gfed|e2A2 A2Bc|d2de gfed|c2a2 a2A2|!
d2fd A2dA|F2AF D2Bc|dcBA FAEA|F2D2 D2:|]
